X:1
T:Title
%%score { ( 1 4 5 ) | ( 2 3 ) }
L:1/8
M:3/4
K:C
V:1 treble nm="Grand Piano"
V:4 treble 
V:5 treble 
V:2 bass 
V:3 bass 
V:1
 z2 z2[Q:1/4=100] z[Q:1/4=72] [EG] | [EG][_E^F] [EA][=EG] [C=F]>[CE] | [EG]2 FD EF | A3 G FE | %4
 [CE]2 D2 z G | A[FG] [Ee][Gc] [GB]>[FA] | [FA]2 [EG]G AB | c3 d AB | [Ec]3 [Ec] [Ec][Ec] | %9
 [Fc]3 [FA] [GB]>[FA] | [EG]3 [Ec] [Ec][Ec] | [Ee]3 [Ec] [DA][^Fd] | d3 G AG | e4 z2 | %14
 [Gc]3 c B>A | G3 c e>d |[M:2/4] [Ec]4 |] %17
V:2
 z2 z2 z [C,G,] | [C,G,][C,A,] [C,^F,][C,G,] [C,A,]>[C,G,] | %2
 [C,_B,]2 [D,A,D][F,G,=B,] [E,G,B,][D,G,B,] | [_E,^F,C]3 [=E,G,C] [D,G,B,][C,G,C] | %4
 z2 B,2 z [G,B,D] | [F,B,D][D,B,] [C,C][E,C] [F,C]>[F,C] | %6
 [C,C]2 [C,C][K:treble][G,B,D] [G,CD][^G,DF] | [A,CE]3 [F,A,D] [F,A,D][G,F] | %8
 [C,C]3 [C,G,] [C,A,][C,_B,] | [F,A,]3 [F,C] [F,C]>[F,C] | [C,C]3 [C,G,] [C,G,][C,G,] | %11
 [C,G,]3 [C,G,] [D,^F,][D,C] | [G,B,G]3 [G,B,F] [G,CF][G,B,F] | %13
 .E2 z [A,CF] [G,CG]>[K:bass][F,B,] | [E,C]3 [F,A,C] [F,B,D]>[^F,C_E] | %15
 [G,CE]3 [G,CE] [G,,G,B,G]>[G,,G,B,F] |[M:2/4] [C,G,C]4 |] %17
V:3
 x6 | x6 | x6 | x6 | [G,,G,]4 z2 | x6 | x3[K:treble] x3 | x6 | x6 | x6 | x6 | x6 | x6 | %13
 C4 z2[K:bass] | x6 | x6 |[M:2/4] x4 |] %17
V:4
 x6 | x6 | x6 | x6 | x6 | x6 | x6 | x6 | x6 | x6 | x6 | x6 | x6 | z2 _B,f e>[Gd] | x6 | x6 | %16
[M:2/4] x4 |] %17
V:5
 x6 | x6 | x6 | x6 | x6 | x6 | x6 | x6 | x6 | x6 | x6 | x6 | x6 | z .G3 z2 | x6 | x6 |[M:2/4] x4 |] %17

